X:1
T:Groombridge, 85.85.88.85
T:Groombridge, 85.85.88.85
T:W. J. Whitwell, before 1907
T:Public Domain Courtesy of the Cyber Hymnal™
C:W. J. Whitwell, before 1907
Z:Public Domain
Z:Courtesy of the Cyber Hymnal™
%%score ( 1 2 ) ( 3 4 )
L:1/8
Q:1/4=105
M:none
K:G
V:1 treble 
V:2 treble 
V:3 bass 
V:4 bass 
V:1
|: E2 [EG]2 [FB]2 [EA]2 | G3 z A [EG]2 [^DF]2 | E2 [FA]2 [EG]2 [^DF]2 | E8 :| B3 z B [EA]2 [EG]2 | %5
 [EF]2 (GA) [EG]2 E2 | B3 z B [Dd]2 [FB]2 | d2 [E^c]2 [^DB]2 [FB]2 | [Gc]2 (BA) [Gd]2 [^GB]2 | %9
 [Ac]2 (BA) [EB]2 [^DF]2 | E2 [FA]2 [EG]2 [^DF]2 | E8 |] %12
V:2
|: E2 x6 | E2 E2 x5 | E2 x6 | E8 :| G2 F2 x5 | x2 ^D2 x E2 x | G2 F2 x5 | (GF) x6 | x2 F2 x4 | %9
 x2 E2 x4 | E2 x6 | E8 |] %12
V:3
|: [E,G,]2 [E,B,]2 [D,B,]2 [C,E,]2 | [B,,G,]2 [A,,C]2 [B,,B,]2 [B,,A,]2 x | %2
 [C,G,]2 [A,,C]2 [B,,B,]2 [B,,A,]2 | [E,G,]8 :| [E,B,]2 [D,B,]2 (E,F,) [B,,G,]2 x | %5
 [A,,C]2 [B,,B,]2 [E,B,]2 [E,G,]2 | [E,B,]2 [D,B,]2 [B,,B,]2 [D,B,]2 x | %7
 [E,B,]2 [F,^A,]2 B,2 [B,,^D]2 | [A,,E]2 [D,D]2 [B,,D]2 [E,E]2 | %9
 [A,,E]2 [C,E,]2 [B,,F,]2 [B,,B,]2 | [C,G,]2 [A,,C]2 [B,,B,]2 [B,,A,]2 | [E,G,]8 |] %12
V:4
|: x8 | x9 | x8 | x8 :| x4 C,2 x3 | x8 | x9 | x4 B,2 x2 | x8 | x8 | x8 | x8 |] %12

